X:1
T:Cheshunt College, 88.88.88
T:Cheshunt College, 88.88.88
T:Joseph Barnby (1838-1896)
T:Public Domain Courtesy of the Cyber Hymnal™
C:Joseph Barnby (1838-1896)
Z:Public Domain
Z:Courtesy of the Cyber Hymnal™
%%score ( 1 2 ) ( 3 4 )
L:1/8
Q:1/4=110
M:4/4
K:Eb
V:1 treble 
V:2 treble 
V:3 bass 
V:4 bass 
V:1
 [EB]2 | [EA]2 [EG]2 [DF]2 E2 | [Ec]2 (BA) [EG]2 G2 | [F=A]2 [FB]2 [Fe]2 [Fd]2 | %4
 [Ec]2 [Ec]2 [DB]2 [FB]2 | [EA]2 [EG]2 [CF]2 [FA]2 | G3 z F [CE]2 [Gc]2 | %7
 [FB]2 [E=A]2 [DB]2 [Gc]2 | [Fd]2 [Ec]2 [DB]2 [DB]2 | [Ee]2 [Ed]2 [Ec]2 [=EB]2 | %10
 [FA]2 [Fc]2 [FB]2 [DA]2 | [EG]2 [_DB]2 [CA]2 [CF]2 | [B,E]2 [A,D]2 !fermata![B,E]2 |] %13
V:2
 x2 | x6 E2 | x2 D2 x G2 x | x8 | x8 | x8 | D2 D2 x5 | x8 | x8 | x8 | x8 | x8 | x6 |] %13
V:3
 [E,G,]2 | [E,C]2 [E,B,]2 [B,,A,]2 [C,G,]2 | [A,,F,]2 [B,,B,]2 [E,B,]2 (ED) | %3
 [E,C]2 [D,B,]2 [C,=A,]2 [B,,B,]2 | (B,G,) [F,=A,]2 [B,,B,]2 [D,B,]2 | [E,C]2 [E,B,]2 A,2 [F,C]2 | %6
 [G,=B,]2 [=B,,G,]2 [C,G,]2 [C,E]2 x | [F,D]2 [F,C]2 [G,B,]2 [E,B,]2 | [F,B,]2 [F,=A,]2 B,2 B,2 | %9
 [G,B,]2 [G,B,]2 A,2 [G,C]2 | [F,C]2 [E,A,]2 [D,B,]2 [B,,B,]2 | %11
 [E,B,]2 [G,,E,]2 [A,,E,]2 [A,,A,]2 | [B,,G,]2 (F,A,) !fermata![E,G,]2 |] %13
V:4
 x2 | x8 | x6 E,2 | x8 | F,2 x6 | x4 A,2 x2 | x9 | x8 | x4 B,2 B,2 | x4 A,2 x2 | x8 | x8 | %12
 x2 B,,2 x2 |] %13

